X:1
T:La Fille Aux Cheveux De Lin
T:La Fille Aux Cheveux De Lin
T:For Trombone Quartet
T:Debussy
C:Debussy
Z:Arr. Pukuya
%%score 1 2 3 4
L:1/8
Q:1/4=67
M:3/4
K:Db
V:1 bass nm="Trombone" snm="Tbn."
V:2 bass nm="Trombone" snm="Tbn."
V:3 bass nm="Trombone" snm="Tbn."
V:4 bass nm="Bass Trombone" snm="B. Tbn."
V:1
!p! (A3 F/D/ B,D/F/ | AF/D/ B,D/F/ DD/B,/ | D)C/B,/!>(! A,4-!>)! | !breath!A,4 (B,D) | E3 A FD/F/ | %5
!<(! EA F2!mf! B2-!<)! | !breath!B2!p! (!tenuto!F3 G) | (A3 F/D/ B,D/F/ | AF/D/ B,D/F/ DD/B,/) | %9
 DC/B,/ A,4- | A,4 z F,/A,/ | B,D/E/ GA!<(! Bd-!<)! | dc/B/ A2- A/G/F/E/ | %13
!pp! D/E/F- F/E/D- D/C/B,- | B,/A,/G, z/!<(! A,,/C,/E,/ G,/A,/_C/E/!<)! | GF/E/ D4 | %16
 F(E/D/) B,3 (A,/G,/) |!>(! F,E,/D,/ B,,3 B,,/=G,,/!>)! |!p! B,, z =D,2!>(! E,2!>)! || %19
!<(! F,4!>(! =G,2!<)!!>)! |!<(! F,(F,/=G,/ B,/C/=D/F/)!f! B2!<)! | %21
 (6:4:4B3/2A/B/A/ .FE-!>(! E/D/C/B,/!>)! |!p! (6:4:4B,3/2A,/B,/A,/ .F, !breath!!tenuto!E,2 (D/C/) | %23
!pp! (B,>A, F,A, B,D | B,A,!<(! F,2 G,2)!<)! |!p! (B,>A, B,!<(!D FA!<)! | %26
 FD)!>(! (!tenuto!D2 C2)!>)! || z2 z2!pp! A2- | A3 F/D/ B,D/F/ | AF/D/ B,D/F/ DD/B,/ | F,6 | F,6 | %32
!pp! B,>C B,>A, G,>F, | E,>F, G,>F, E,>F, |!>(! G,4 (3GAB!>)! | d6- | d6- | d6 |] %38
V:2
 z6 | z2 z2 z!p! G, |!>(! F,6-!>)! | F,4 z2 | (C3 C D2 |!<(! C2 =A,2!mf! =D2-!<)! | D2) z4 | %7
!p! (A,4 B,2) | (A,2 B,2) A,G, | A,2 F,4- | F,4 z2 | E,4!<(! E2!<)! |!>(! F4 A,2!>)! | %13
!pp! B,>(C B,>)(A, G,>)F, |!<(! E,6!<)! |!mf! D2!>(! B,4!>)! |!mp! E2!>(! C4!>)! | %17
!>(! D,2 E,4!>)! |!p!!<(! z!<(! (F,,/=G,,/ B,,/C,/=D,/F,/!>(! =G,)B,/=G,/!<)!!<)!!>)! || %19
!<(! B, z =D,2!>(! E,2!<)!!>)! |!<(! =D,(F,/=G,/ B,/C/=D/F/)!f! _D2-!<)! | %21
 DC .B,!>(! !tenuto!=G,3!>)! |!p! (G,E, .D,) !breath!!tenuto!B,,2 (D/E/) |!pp! (F>D FA Bd | %24
 BA!<(! F2 E2)!<)! |!p! (F>D F!<(!A Bd!<)! | BA)!>(! (!tenuto!F2 E2)!>)! ||!pp! B,6- | B,6 | B,6- | %30
 B,6 | A,6 |!pp! D/E/F- F/E/D- D/C/B,- | B,/A,/B,- B,/A,/B,- B,/A,/B,- | %34
!>(! B,/D,/E,/G,/ A,/B,/D/E/ (3DEG!>)! | F6 | F6- | F6 |] %38
V:3
 z6 | z2 z2 z!p! B,, |!>(! A,,6-!>)! | A,,4 z2 | (E,3 C, F,2 |!<(! E,2 F,2 F,2-!<)! | F,2) z4 | %7
!p! (F,4 =G,2) | (F,2 =G,2) F,D, | F,2 A,2- A,/G,/F,/E,/ | D,C,/B,,/ A,,4 | G,,2!<(! B,,4!<)! | %12
!>(! A,4 F,2!>)! |!pp! G,>(A, G,>)(F, E,>)D, | _C,2 G,2 z2 |!mf! B,2!>(! G,4!>)! | %16
!mp! =G,2!>(! E,4!>)! |!>(! B,,2 C,4!>)! |!p!!<(! F,4!>(! =G,2!<)!!>)! || %19
!<(! z (F,,/=G,,/ B,,/C,/=D,/!>(!F,/ =G,)B,/G,/!<)!!>)! | %20
!<(! B,(F,,/=G,,/ B,,/C,/=D,/F,/)!f! _G,2-!<)! | G,E, .D,!>(! !tenuto!B,,3!>)! | %22
!p! (D,C,) .B,, !breath!!tenuto!=G,,2 A, |!pp! (A,>F, D,F, A,C | A,F,!<(! D,2 E,2)!<)! | %25
!p! (A,,>B,, D,!<(!F, A,B,!<)! | DB,)!>(! (!tenuto!D,2 E,2)!>)! ||!pp! D,6- | D,6 | (D,4 E,2) | %30
!p! (D2 C2 B,2 | A,3)!>(! G, F,E,!>)! |!pp! G,>A, G,>F, E,>D, | _C,>D, E,>D, C,>D, |!>(! E,6!>)! | %35
 A,6 | A,6- | A,6 |] %38
V:4
 z6 | z2 z2 z!p! G,, |!>(! D,,6-!>)! | D,,4 z2 |!p!!p! (A,,3 F,, B,,D, | %5
!<(! A,,2 F,,2!mf!!mf! B,,2-!<)! | B,,2) z4 |!p! (_C,4 D,2) | (_C,2 D,2) D,C, | D,,6- | %10
 D,,2 A,,2- A,,/G,,/F,,/E,,/ | D,,4!<(! D,2!<)! |!>(! D,4 D,,2!>)! |!pp! D,>(E, D,>)(C, B,,>)A,, | %14
!<(! G,,2 _C,4!<)! |!mf!!>(! G,,6!>)! |!mp! E,,2!>(! A,,4!>)! |!>(! E,,2 F,,2 F,,2!>)! | %18
!p!!<(! B,,,4!>(! F,,2!<)!!>)! ||!<(! D,,4!>(! F,,2!<)!!>)! | %20
!<(! B,,,(F,,/=G,,/ B,,/C,/=D,/F,/)!f! _G,,2-!<)! | G,,A,, .B,,!tenuto!E,!>(! E,,2!>)! | %22
!p! (G,,A,, .B,,) !breath!!tenuto!E,,2 A,, |!pp! (D,>B,, G,,B,, D,F, | D,B,,!<(! G,,2 A,,2)!<)! | %25
!p! (D,,>F,, A,,B,, D,!<(!F,!<)! | A,F,)!>(! (!tenuto!G,,2 A,,2)!>)! ||!pp! G,,6- | G,,6 | G,,6 | %30
 B,,6 | D,6 |!pp! D,>E, D,>C, B,,>A,, | G,,>A,, B,,>A,, G,,>A,, | %34
 G,,/!>(!A,,/B,,/D,/ E,/G,/A,/B,/ B,2!>)! | D,6 | D,6- | D,6 |] %38

